icons/nightwatch.svg

<?xml version="1.0" encoding="UTF-8" standalone="no"?>
<svg width="256px" height="328px" viewBox="0 0 256 328" version="1.1" xmlns="http://www.w3.org/2000/svg" xmlns:xlink="http://www.w3.org/1999/xlink" preserveAspectRatio="xMidYMid">
	<g>
		<path d="M179.2566,98.2149 C315.0516,165.7909 251.8616,293.7319 133.8616,300.3079 C128.8736,300.5859 123.8496,300.3499 118.9076,299.6159 C6.5386,282.9239 -33.7454,169.7929 72.2216,103.2209 C104.5086,82.9369 145.1196,81.2269 179.2566,98.2149" fill="#794422"></path>
		<path d="M170.745795,297.509 C230.203147,263.1951 257.718591,165.822693 207.928,80.4235 C210.741,65.4855 212.428,51.5295 212.665,38.8385 C213.133,34.7285 209.148,31.5405 205.242,32.8985 C193.598,35.7515 182.389,39.5885 171.684,44.5605 C163.579,38.9125 155.198,37.0075 148.316,36.6445 C144.571,36.4465 145.986,30.8185 146.289,28.7515 C148.068,24.8565 149.756,21.5895 153.943,17.8545 C156.851,15.1945 153.204,11.5385 149.866,13.6335 C144.429,16.2295 141.033,18.8505 137.204,22.6705 C136.117,23.4785 134.816,23.4035 133.88,23.2285 C133.211,23.1035 132.725,22.4935 132.652,21.8165 C131.831,14.2765 132.683,7.5135 139.279,2.4265 C140.52,1.4695 139.273,-0.3695 137.848,0.0655 C126.839,3.4265 122.064,11.0405 118.247,20.4535 C115.182,18.2985 111.595,16.4145 107.514,14.7865 C106.824,14.4225 105.922,14.1885 105.3,14.6585 C104.184,15.5005 102.796,16.3755 103.44,17.8785 C107.771,24.1525 112.123,30.2625 116.745,34.2595 C105.803,36.5815 95.455,40.4045 85.842,46.0865 L49.358,32.0545 C44.597,30.2235 39.625,34.1915 40.355,39.2405 C42.442,60.9135 44.585,81.8495 47.69,89.9615 C5.16820802,177.506221 31.3154308,265.306819 87.9147032,297.509 L-5.68434189e-14,297.509 L-5.68434189e-14,327.267 L256,327.267 L256,297.509 L170.745795,297.509 Z" fill="#502D17"></path>
		<path d="M128.763,106.9391 C145.073,66.5931 181.047,61.4061 206.593,87.1951 C227.796,108.6001 228.34,167.6011 176.835,178.4741 C229.198,221.9671 193.431,295.7911 133.627,295.7911 C73.538,294.9331 35.195,222.5401 90.993,177.9021 C38.915,180.1911 30.033,125.7421 48.93,94.3491 C66.21,65.6411 116.173,61.1571 128.763,106.9391" fill="#FFFFFF"></path>
		<path d="M152.5127,161.5919 C153.9767,159.4809 153.8997,156.6939 152.4087,154.6029 C147.4137,147.6019 140.2607,141.8479 129.9077,141.8479 C119.2807,141.8479 112.9657,147.6199 107.1597,155.2969 C105.6437,157.2999 105.5377,160.0679 106.9227,162.1629 C111.2837,168.7579 118.7887,174.8689 127.2707,181.1379 C128.8317,182.2919 130.9617,182.2559 132.4857,181.0529 C140.4597,174.7559 147.9067,168.2359 152.5127,161.5919" fill="#FF7F2B"></path>
		<path d="M189.4247,122.5815 C189.4247,141.3085 177.1007,156.1075 162.9567,156.1075 C148.8127,156.1075 137.3477,140.9265 137.3477,122.1995 C137.3477,103.4735 148.8127,88.2925 162.9567,88.2925 C177.1007,88.2925 189.4247,103.8545 189.4247,122.5815 Z M119.7973,125.9198 C119.7973,144.6468 107.4733,159.4458 93.3293,159.4458 C79.1853,159.4458 67.7203,144.2648 67.7203,125.5378 C67.7203,106.8118 79.1853,91.6308 93.3293,91.6308 C107.4733,91.6308 119.7973,107.1928 119.7973,125.9198 Z" fill="#B1DFEC"></path>
		<path d="M179.6006,126.5874 C179.6006,138.8634 171.9286,148.7234 163.0526,148.7234 C154.1766,148.7234 146.5996,138.7684 146.5996,126.4924 C146.5996,114.2164 154.1766,104.2684 163.0526,104.2684 C171.9286,104.2684 179.6006,114.3114 179.6006,126.5874 Z M110.5455,126.2059 C110.5455,138.4819 102.8735,148.3419 93.9975,148.3419 C85.1215,148.3419 77.5445,138.3869 77.5445,126.1109 C77.5445,113.8349 85.1215,103.8869 93.9975,103.8869 C102.8735,103.8869 110.5455,113.9299 110.5455,126.2059 Z" fill="#000000"></path>
		<path d="M166.8197,115.9048 C166.8197,119.6448 163.8307,122.6768 160.1427,122.6768 C156.4557,122.6768 153.4667,119.6448 153.4667,115.9048 C153.4667,112.1648 156.4557,109.1328 160.1427,109.1328 C163.8307,109.1328 166.8197,112.1648 166.8197,115.9048 Z M102.8197,115.5233 C102.8197,119.2633 99.8307,122.2953 96.1427,122.2953 C92.4557,122.2953 89.4667,119.2633 89.4667,115.5233 C89.4667,111.7833 92.4557,108.7513 96.1427,108.7513 C99.8307,108.7513 102.8197,111.7833 102.8197,115.5233 Z" fill="#FFFFFF"></path>
		<path d="M72.9657,311.7201 C72.9657,311.7201 72.7747,319.8271 78.2117,319.9231 C79.9157,325.0441 85.9347,325.0171 86.8917,320.5901 L93.7587,320.5901 C93.7587,320.5901 93.0907,324.1191 97.1927,324.0241 C101.2937,323.9291 100.9117,320.3041 100.9117,320.3041 L107.3977,320.3041 C107.3977,320.3041 106.4437,324.0241 110.6407,324.0241 C114.8377,324.0241 114.6357,319.7621 114.6357,319.7621 C116.9937,318.2801 119.7497,318.3971 119.7497,313.8181 C119.7497,312.8211 119.5107,311.7331 119.0517,310.6061 C116.5657,304.5061 107.6227,297.2691 95.0937,297.2221 C87.0547,297.2751 79.5627,302.1791 74.5867,306.9991 C73.0607,308.4771 72.9657,311.7201 72.9657,311.7201 Z M186.4662,311.7201 C186.4662,311.7201 186.4682,320.1131 181.0312,320.2091 C180.1742,325.0731 173.1762,325.0161 172.5412,320.5901 L165.6732,320.5901 C165.6732,320.5901 166.1502,324.1191 162.0492,324.0241 C157.9472,323.9291 158.5202,320.3041 158.5202,320.3041 L152.0342,320.3041 C152.0342,320.3041 152.7972,324.0241 148.6002,324.0241 C144.4032,324.0241 144.7962,319.7621 144.7962,319.7621 C142.4382,318.2801 139.6822,318.3971 139.6822,313.8181 C139.6822,312.8211 139.9212,311.7331 140.3802,310.6061 C142.8662,304.5061 151.8092,297.2691 164.3382,297.2221 C172.3772,297.2751 179.1352,302.1281 184.3692,306.6651 C186.4682,308.8591 186.4662,311.7201 186.4662,311.7201 Z" fill="#FF7F2B"></path>
	</g>
</svg>

<svg xmlns="http://www.w3.org/2000/svg" viewBox="0 0 256 327.267">
  <path fill="#794422" d="M179.257 98.215c135.795 67.576 72.605 195.517-45.395 202.093a73.928 73.928 0 0 1-14.954-.692C6.538 282.924-33.745 169.793 72.222 103.22c32.287-20.284 72.898-21.994 107.035-5.006"/>
  <path fill="#502d17" d="M170.746 297.509c59.457-34.314 86.973-131.686 37.182-217.086 2.813-14.938 4.5-28.894 4.737-41.585.468-4.11-3.517-7.298-7.423-5.94-11.644 2.853-22.853 6.69-33.558 11.662-8.105-5.648-16.486-7.553-23.368-7.916-3.745-.198-2.33-5.826-2.027-7.893 1.779-3.895 3.467-7.162 7.654-10.897 2.908-2.66-.739-6.316-4.077-4.22-5.437 2.595-8.833 5.216-12.662 9.036-1.087.808-2.388.733-3.324.558-.669-.125-1.155-.735-1.228-1.412-.821-7.54.031-14.303 6.627-19.39 1.241-.957-.006-2.796-1.431-2.36-11.009 3.36-15.784 10.974-19.601 20.387-3.065-2.155-6.652-4.039-10.733-5.667-.69-.364-1.592-.598-2.214-.128-1.116.842-2.504 1.717-1.86 3.22 4.331 6.274 8.683 12.384 13.305 16.381-10.942 2.322-21.29 6.145-30.903 11.827L49.358 32.054c-4.761-1.83-9.733 2.137-9.003 7.186 2.087 21.673 4.23 42.61 7.335 50.721C5.168 177.506 31.315 265.307 87.915 297.51H0v29.758h256v-29.758z"/>
  <path fill="#fff" d="M128.763 106.94c16.31-40.347 52.284-45.534 77.83-19.745 21.203 21.405 21.747 80.406-29.758 91.28 52.363 43.492 16.596 117.316-43.208 117.316-60.089-.858-98.432-73.25-42.634-117.889-52.078 2.29-60.96-52.16-42.063-83.553 17.28-28.708 67.243-33.192 79.833 12.59"/>
  <path fill="#ff7f2b" d="M152.513 161.592c1.464-2.111 1.387-4.898-.104-6.99-4.995-7-12.148-12.754-22.501-12.754-10.627 0-16.942 5.772-22.748 13.449-1.516 2.003-1.622 4.77-.237 6.866 4.36 6.595 11.866 12.706 20.348 18.975a4.289 4.289 0 0 0 5.215-.085c7.974-6.297 15.42-12.817 20.027-19.461"/>
  <path fill="#b1dfec" d="M189.425 122.581c0 18.727-12.324 33.526-26.468 33.526s-25.61-15.18-25.61-33.908c0-18.726 11.466-33.907 25.61-33.907s26.468 15.562 26.468 34.29zm-69.628 3.339c0 18.727-12.324 33.526-26.468 33.526S67.72 144.265 67.72 125.538c0-18.726 11.465-33.907 25.61-33.907 14.143 0 26.467 15.562 26.467 34.289z"/>
  <path d="M179.6 126.587c0 12.276-7.671 22.136-16.547 22.136-8.876 0-16.453-9.955-16.453-22.23 0-12.277 7.577-22.225 16.453-22.225s16.548 10.043 16.548 22.32zm-69.055-.381c0 12.276-7.672 22.136-16.548 22.136-8.876 0-16.453-9.955-16.453-22.231 0-12.276 7.577-22.224 16.453-22.224s16.548 10.043 16.548 22.319z"/>
  <path fill="#fff" d="M166.82 115.905c0 3.74-2.99 6.772-6.677 6.772-3.687 0-6.676-3.032-6.676-6.772s2.989-6.772 6.676-6.772c3.688 0 6.677 3.032 6.677 6.772zm-64-.382c0 3.74-2.99 6.772-6.677 6.772-3.687 0-6.676-3.032-6.676-6.772s2.989-6.772 6.676-6.772c3.688 0 6.677 3.032 6.677 6.772z"/>
  <path fill="#ff7f2b" d="M72.966 311.72s-.191 8.107 5.246 8.203c1.704 5.121 7.723 5.094 8.68.667h6.867s-.668 3.53 3.434 3.434c4.1-.095 3.719-3.72 3.719-3.72h6.486s-.954 3.72 3.243 3.72 3.995-4.262 3.995-4.262c2.358-1.482 5.114-1.365 5.114-5.944 0-.997-.24-2.085-.698-3.212-2.486-6.1-11.43-13.337-23.958-13.384-8.04.053-15.531 4.957-20.507 9.777-1.526 1.478-1.621 4.721-1.621 4.721zm113.5 0s.002 8.393-5.435 8.49c-.857 4.863-7.855 4.806-8.49.38h-6.868s.477 3.53-3.624 3.434c-4.102-.095-3.529-3.72-3.529-3.72h-6.486s.763 3.72-3.434 3.72-3.804-4.262-3.804-4.262c-2.358-1.482-5.114-1.365-5.114-5.944 0-.997.24-2.085.698-3.212 2.486-6.1 11.43-13.337 23.958-13.384 8.04.053 14.797 4.906 20.031 9.443 2.1 2.194 2.097 5.055 2.097 5.055z"/>
</svg>
